X: 317
T:The Wonder
% Nottingham Music Database
S:Jimmy MacKay, via EF
M:6/8
K:A
P:A
E|"A"AAA cAA|"D"dBB "A"cAa|"A"efe edc|"Bm"cBB "E7"B2E|
"A"AAA cAA|"D"dBB "A"cAa|"D"efe "E7"e2d|"A"cAA A2:|
P:B
e|"A"eee "D"fga|"A"eee "D"fga|"A"efe edc|"Bm"Bbb "E7"b3|
"A"eee "D"fga|"A"eee "D"fga|"A"efe "E7"e2d|"A"cAA A2:|<end>
<start>
